X:628
T:Tarantella
S:Forgotten
Z:Nigel Gatherer
M:6/8
L:1/8
K:Am
z3  | a2a    e2e | a2a    e2e | f2f  fgf | e2z e2e | 
      d2d    ded | c2c    cdc | B2B  BcB | A3     :|
A2B | cBc    dcB | cBc    dcB | cBA ^GAB | A3  A2B |
      cBc    dcd | ede    fed | cBA ^GAB | A3     :|
G2G | cBc    ede | g2g    gag | f2f  fgf | e3  G2G |
      cBc    ede | g2g    gag | bag  fed | c3     :|
e2f | g^fg   a2g | f2z    d2e | fef  g2f | e2z e2e |
      f/e/dz d2d | e/d/cz c2d | e2d  c2B | A3    :|]
